file/tinder.svg

<svg clip-rule="evenodd" fill-rule="evenodd" stroke-linejoin="round" stroke-miterlimit="1.41421" viewBox="0 0 560 400" xmlns="http://www.w3.org/2000/svg" xmlns:xlink="http://www.w3.org/1999/xlink"><linearGradient id="a" gradientTransform="matrix(-104.771 123.096 -123.096 -104.771 105 -.044439)" gradientUnits="userSpaceOnUse" x1="0" x2="1" y1="0" y2="0"><stop offset="0" stop-color="#ff7854"/><stop offset="1" stop-color="#fd267d"/></linearGradient><g transform="matrix(.694081 0 0 .694081 99.8412 157.312)"><path d="m31.5 49.6c23.5-8.1 27.5-29.2 24.5-48.6 0-.7.6-1.2 1.2-1 22.5 11 47.8 35 47.8 71 0 27.6-21.4 52-52.5 52-.757.034-1.514.052-2.271.052-27.429 0-50-22.571-50-50 0-17.459 9.144-33.699 24.071-42.752.6-.4 1.4 0 1.4.7.3 3.7 1.3 13 5.4 18.6z" fill="url(#a)"/><path d="m171.2 101.1 1.7-2 5.3 16.8-.7.7c-4 3.7-10 5.6-17.7 5.6h-.3c-7 0-12.5-2-16.3-5.7-3.8-3.8-5.8-9.5-5.8-16.7v-45.8h-13.5v-18.5h13.5v-22.3h20.8v22.3h16.5v18.5h-16.6v41.3c0 1.9.5 8 6.3 8 3 0 5.8-1.1 6.8-2.3zm11 19.2v-84.7h20.8v84.7zm10.3-119.3c6.857 0 12.5 5.643 12.5 12.5s-5.643 12.5-12.5 12.5c-6.82 0-12.445-5.581-12.5-12.4 0-6.8 5.7-12.6 12.5-12.6zm66.4 32.5c18 0 27.9 9.8 27.9 27.7v59h-20.8v-54c-.4-9.6-5-14-14.8-14-8.8 0-15.9 5.4-19.5 10v58h-20.8v-84.5h20.8v9c6-5.8 15.6-11 27.2-11zm97.1 10.9v-39.8h20.8v115.8h-20.8v-8.8c-6.429 6.78-15.357 10.648-24.7 10.7-22.7 0-37.9-17.8-37.9-44.3 0-26.6 15.2-44.4 37.9-44.4 9.366.043 18.309 3.953 24.7 10.8zm0 17.9c-4.692-6.11-11.899-9.788-19.6-10-12.9 0-21.5 10.3-21.5 25.7 0 15.3 8.6 25.6 21.5 25.6 7.5 0 15.7-4 19.6-9.8zm69.4-28.7c24.6 0 41.7 19 41.7 46v5.7h-62.9c2.1 11.9 11.5 19.5 24.3 19.5 8.1 0 17-3.5 22.1-8.6l1.4-1.2 9.9 14.2-1 .9c-9.367 8.305-21.59 12.678-34.1 12.2-26 0-44.3-18.3-44.3-44.4-.018-.5-.026-1-.026-1.501 0-23.479 19.32-42.8 42.8-42.8.075 0 .151.001.226.001zm-21.3 36h42.7c-1.2-12.7-11.7-18.5-21.4-18.5-14.6 0-20.1 11-21.3 18.6zm113.3-36h1.5v21l-1.8-.3c-1.5-.3-3.4-.5-5.3-.5-6.7 0-16 4.7-19.5 9.7v56.7h-20.8v-84.6h20.9v9.4c6.9-7.2 16-11.4 25-11.4z" fill="#424242"/></g></svg>

<?xml version="1.0" encoding="UTF-8" standalone="no"?>
<!DOCTYPE svg PUBLIC "-//W3C//DTD SVG 1.1//EN" "http://www.w3.org/Graphics/SVG/1.1/DTD/svg11.dtd">
<svg width="100%" height="100%" viewBox="0 0 560 400" version="1.1" xmlns="http://www.w3.org/2000/svg" xmlns:xlink="http://www.w3.org/1999/xlink" xml:space="preserve" xmlns:serif="http://www.serif.com/" style="fill-rule:evenodd;clip-rule:evenodd;stroke-linejoin:round;stroke-miterlimit:1.41421;">
    <g transform="matrix(0.694081,0,0,0.694081,99.8412,157.312)">
        <g>
            <path d="M31.5,49.6C55,41.5 59,20.4 56,1C56,0.3 56.6,-0.2 57.2,0C79.7,11 105,35 105,71C105,98.6 83.6,123 52.5,123C51.743,123.034 50.986,123.052 50.229,123.052C22.8,123.052 0.229,100.481 0.229,73.052C0.229,55.593 9.373,39.353 24.3,30.3C24.9,29.9 25.7,30.3 25.7,31C26,34.7 27,44 31.1,49.6L31.5,49.6Z" style="fill:url(#_Linear1);"/>
            <path d="M171.2,101.1L172.9,99.1L178.2,115.9L177.5,116.6C173.5,120.3 167.5,122.2 159.8,122.2L159.5,122.2C152.5,122.2 147,120.2 143.2,116.5C139.4,112.7 137.4,107 137.4,99.8L137.4,54L123.9,54L123.9,35.5L137.4,35.5L137.4,13.2L158.2,13.2L158.2,35.5L174.7,35.5L174.7,54L158.1,54L158.1,95.3C158.1,97.2 158.6,103.3 164.4,103.3C167.4,103.3 170.2,102.2 171.2,101L171.2,101.1ZM182.2,120.3L182.2,35.6L203,35.6L203,120.3L182.2,120.3ZM192.5,1C199.357,1 205,6.643 205,13.5C205,20.357 199.357,26 192.5,26C185.68,26 180.055,20.419 180,13.6C180,6.8 185.7,1 192.5,1ZM258.9,33.5C276.9,33.5 286.8,43.3 286.8,61.2L286.8,120.2L266,120.2L266,66.2C265.6,56.6 261,52.2 251.2,52.2C242.4,52.2 235.3,57.6 231.7,62.2L231.7,120.2L210.9,120.2L210.9,35.7L231.7,35.7L231.7,44.7C237.7,38.9 247.3,33.7 258.9,33.7L258.9,33.5ZM356,44.4L356,4.6L376.8,4.6L376.8,120.4L356,120.4L356,111.6C349.571,118.38 340.643,122.248 331.3,122.3C308.6,122.3 293.4,104.5 293.4,78C293.4,51.4 308.6,33.6 331.3,33.6C340.666,33.643 349.609,37.553 356,44.4ZM356,62.3C351.308,56.19 344.101,52.512 336.4,52.3C323.5,52.3 314.9,62.6 314.9,78C314.9,93.3 323.5,103.6 336.4,103.6C343.9,103.6 352.1,99.6 356,93.8L356,62.3ZM425.4,33.6C450,33.6 467.1,52.6 467.1,79.6L467.1,85.3L404.2,85.3C406.3,97.2 415.7,104.8 428.5,104.8C436.6,104.8 445.5,101.3 450.6,96.2L452,95L461.9,109.2L460.9,110.1C451.533,118.405 439.31,122.778 426.8,122.3C400.8,122.3 382.5,104 382.5,77.9C382.482,77.4 382.474,76.9 382.474,76.399C382.474,52.92 401.794,33.599 425.274,33.599C425.349,33.599 425.425,33.6 425.5,33.6L425.4,33.6ZM404.1,69.6L446.8,69.6C445.6,56.9 435.1,51.1 425.4,51.1C410.8,51.1 405.3,62.1 404.1,69.7L404.1,69.6ZM517.4,33.6L518.9,33.6L518.9,54.6L517.1,54.3C515.6,54 513.7,53.8 511.8,53.8C505.1,53.8 495.8,58.5 492.3,63.5L492.3,120.2L471.5,120.2L471.5,35.6L492.4,35.6L492.4,45C499.3,37.8 508.4,33.6 517.4,33.6Z" style="fill:rgb(66,66,66);"/>
        </g>
    </g>
    <defs>
        <linearGradient id="_Linear1" x1="0" y1="0" x2="1" y2="0" gradientUnits="userSpaceOnUse" gradientTransform="matrix(-104.771,123.096,-123.096,-104.771,105,-0.0444394)"><stop offset="0" style="stop-color:rgb(255,120,84);stop-opacity:1"/><stop offset="1" style="stop-color:rgb(253,38,125);stop-opacity:1"/></linearGradient>
    </defs>
</svg>
